src/sources/forus-platform/resources/platform-general/assets/img/svg/bi-connection-icon.svg

<svg width="56" height="56" viewBox="0 0 56 56" fill="none" xmlns="http://www.w3.org/2000/svg">
<rect width="56" height="56" rx="28" fill="#F3F8FE"/>
<path d="M13.6954 26.1586C13.6333 26.6589 14.0234 27.1006 14.5275 27.1006H17.9391C18.3486 27.1006 18.6982 26.8048 18.766 26.4009C19.4226 22.4908 22.4907 19.4226 26.4008 18.766C26.8047 18.6982 27.1005 18.3486 27.1005 17.9391V14.5275C27.1005 14.0234 26.6589 13.6333 26.1586 13.6954C23.0129 14.0864 20.0412 15.5409 17.791 17.791C15.5409 20.0412 14.0864 23.0129 13.6954 26.1586Z" fill="#646F79"/>
<path d="M33.3429 35.529C31.7513 36.6654 29.8851 37.266 27.946 37.266C23.3832 37.266 19.5224 33.9963 18.7659 29.4912C18.6981 29.0873 18.3485 28.7915 17.939 28.7915H14.5274C14.0233 28.7915 13.6332 29.2331 13.6953 29.7334V29.7334C14.5865 36.9039 20.7129 42.3111 27.946 42.3111C31.1683 42.3111 34.2155 41.2652 36.7584 39.2866C37.1565 38.9769 37.193 38.3884 36.8364 38.0318L34.4231 35.6185C34.1332 35.3287 33.6764 35.2908 33.3429 35.529Z" fill="#2987FD"/>
<path d="M29.4911 18.7659C33.9962 19.5224 37.266 23.3832 37.266 27.946C37.266 29.8851 36.6654 31.7513 35.529 33.3429C35.2909 33.6764 35.3287 34.1332 35.6185 34.423L38.032 36.8365C38.3886 37.1931 38.9769 37.1565 39.2866 36.7585L39.2867 36.7584C41.2653 34.2156 42.3111 31.1683 42.3111 27.946C42.3111 20.7129 36.9038 14.5865 29.7334 13.6953H29.7333C29.2331 13.6332 28.7914 14.0233 28.7914 14.5274V17.939C28.7914 18.3485 29.0872 18.6981 29.4911 18.7659Z" fill="#134478"/>
<path d="M28.5044 22.1839H27.3857C26.9226 22.1839 26.5471 22.5593 26.5471 23.0224V32.8053H29.3429V23.0224C29.3429 22.5593 28.9675 22.1839 28.5044 22.1839Z" fill="#134478"/>
<path d="M31.0201 32.8054H32.9773C33.4404 32.8054 33.8159 32.4299 33.8159 31.9668V25.2585C33.8159 24.7954 33.4404 24.42 32.9773 24.42H31.0201V32.8054Z" fill="#134478"/>
<path d="M24.8702 26.6561H22.915C22.4519 26.6561 22.0765 27.0315 22.0765 27.4946V31.9668C22.0765 32.4299 22.4519 32.8054 22.915 32.8054H24.8702V26.6561Z" fill="#134478"/>
</svg>

<svg width="56" height="56" fill="none" xmlns="http://www.w3.org/2000/svg"><rect width="56" height="56" rx="28" fill="#F3F8FE"/><path d="M13.695 26.159c-.062.5.328.942.832.942h3.412c.41 0 .76-.296.827-.7a9.309 9.309 0 0 1 7.635-7.635.838.838 0 0 0 .7-.827v-3.412a.839.839 0 0 0-.942-.832 14.407 14.407 0 0 0-8.368 4.096 14.407 14.407 0 0 0-4.096 8.368Z" fill="#646F79"/><path d="M33.343 35.529a9.24 9.24 0 0 1-5.397 1.737 9.285 9.285 0 0 1-9.18-7.775.838.838 0 0 0-.827-.7h-3.412a.839.839 0 0 0-.832.942c.891 7.17 7.018 12.578 14.251 12.578 3.222 0 6.27-1.046 8.812-3.024a.839.839 0 0 0 .078-1.255l-2.413-2.413a.839.839 0 0 0-1.08-.09Z" fill="#2987FD"/><path d="M29.491 18.766a9.285 9.285 0 0 1 7.775 9.18c0 1.94-.6 3.805-1.737 5.397-.238.333-.2.79.09 1.08l2.413 2.413a.838.838 0 0 0 1.255-.078 14.223 14.223 0 0 0 3.024-8.812c0-7.233-5.407-13.36-12.578-14.25a.839.839 0 0 0-.942.831v3.412c0 .41.296.76.7.827ZM28.504 22.184h-1.118a.839.839 0 0 0-.839.838v9.783h2.796v-9.783a.838.838 0 0 0-.839-.838Z" fill="#134478"/><path d="M31.02 32.805h1.957a.839.839 0 0 0 .839-.838v-6.708a.839.839 0 0 0-.839-.839H31.02v8.385ZM24.87 26.656h-1.955a.838.838 0 0 0-.838.839v4.472c0 .463.375.838.838.838h1.955v-6.149Z" fill="#134478"/></svg>
